symbols/web/free_cancellation/materialsymbolsoutlined/free_cancellation_wght200gradN25_48px.svg

<svg xmlns="http://www.w3.org/2000/svg" height="48" width="48"><path d="m32.35 43.1-5.7-5.7 1.05-1.1 4.6 4.55 8.8-8.8 1.1 1.15Zm-17.7-10.7-1.05-1.05L16.95 28l-3.35-3.35 1.05-1.1L18 26.9l3.35-3.35 1.1 1.1L19.1 28l3.35 3.35-1.1 1.05L18 29.05Zm-3.85 9.55q-1.15 0-1.95-.825t-.8-1.925V12.3q0-1.1.8-1.9.8-.8 1.95-.8h4.15v-4h1.75v4h14.75v-4h1.65v4h4.1q1.15 0 1.95.8t.8 1.9v13.75l-1.5 1.55V21H9.55v18.2q0 .45.4.85.4.4.85.4h11.65l1.6 1.5ZM9.55 19.5h28.9v-7.2q0-.45-.4-.825-.4-.375-.85-.375H10.8q-.45 0-.85.375-.4.375-.4.825Zm0 0v-8.4 8.4Z"/></svg>

<svg xmlns="http://www.w3.org/2000/svg" height="48" width="48"><path d="M32.35 43.1 26.65 37.4 27.7 36.3 32.3 40.85 41.1 32.05 42.2 33.2ZM14.65 32.4 13.6 31.35 16.95 28 13.6 24.65 14.65 23.55 18 26.9 21.35 23.55 22.45 24.65 19.1 28 22.45 31.35 21.35 32.4 18 29.05ZM10.8 41.95Q9.65 41.95 8.85 41.125Q8.05 40.3 8.05 39.2V12.3Q8.05 11.2 8.85 10.4Q9.65 9.6 10.8 9.6H14.95V5.6H16.7V9.6H31.45V5.6H33.1V9.6H37.2Q38.35 9.6 39.15 10.4Q39.95 11.2 39.95 12.3V26.05L38.45 27.6V21H9.55V39.2Q9.55 39.65 9.95 40.05Q10.35 40.45 10.8 40.45H22.45L24.05 41.95ZM9.55 19.5H38.45V12.3Q38.45 11.85 38.05 11.475Q37.65 11.1 37.2 11.1H10.8Q10.35 11.1 9.95 11.475Q9.55 11.85 9.55 12.3ZM9.55 19.5V12.3Q9.55 11.8 9.55 11.45Q9.55 11.1 9.55 11.1Q9.55 11.1 9.55 11.45Q9.55 11.8 9.55 12.3V19.5Z"/></svg>
